!!!!SEGMENT: pl-sa--l-1643--039_anonim--angele-dei-qui-custos-es-mei.krn
!!!cenid: 16xx:1394
!!!COM: Anonim
!!!COM-rismID: pe30004985
!!!CDT:
!!!CNT:
!!!OTL: Angele Dei qui custos es mei
!!!PDT:
!!!AGN: Sacred
!!!SMS-siglum: PL-SA
!!!SMS-shelfmark: L 1643
!!!SMS-shelfwork: 039 W
!!!SMS-variant:
!!!SMS-altvar:
!!!NIFC-rismSourceID: 1001063200
!!!NIFC-rismChildID: 1001063200
!!!NIFC-islandoraID:
!!!URL-pdf-islandora:
!!!URL-scan:
!!!ONB-nifc: UWAGA: 8 ksiąg. Primi chori: 1mus Cantus (66-67), C 2dus (66-67), C 3tius (65-66), Bassus (62-63); Secondi chori: Primus Cantus (63-64), C 2dus (67), Altus (64-65), Bassus (64-65). UWAGA: metrum 2/2 i 3/2. Nie dodawać pustych linii, chyba że w rękopisie pojawiają się dodatkowe oznaczenia dotyczące pełnej obsady (a 4, a 8 itp.)
!!!AIN: 8 empty
!!!key:
**kern	**text	**kern	**text	**kern	**text	**kern	**text	**kern	**text	**kern	**text	**kern	**text	**kern	**text
*part8	*part8	*part7	*part7	*part6	*part6	*part5	*part5	*part4	*part4	*part3	*part3	*part2	*part2	*part1	*part1
*staff8	*staff8	*staff7	*staff7	*staff6	*staff6	*staff5	*staff5	*staff4	*staff4	*staff3	*staff3	*staff2	*staff2	*staff1	*staff1
*Iempty	*	*Iempty	*	*Iempty	*	*Iempty	*	*Iempty	*	*Iempty	*	*Iempty	*	*Iempty	*
*I"Baſsus 2di Chori	*	*I"Altus secundi Chori.	*	*I"Cantus 2dus Secundi Chori.	*	*I"Primus Cantus 2di Chori	*	*I"Bassus Primi Chori.	*	*I"Cantus 3tius Primi Chori	*	*I"Cantus 2dus Primi Chori.	*	*I"Imus Cantus Primi Chori	*
*I'B	*	*I'A	*	*I'S 2	*	*I'S 1	*	*I'B	*	*I'S 3	*	*I'S 2	*	*I'S 1	*
*clefC3	*	*clefC2	*	*clefC1	*	*clefG2	*	*clefC3	*	*clefC2	*	*clefC1	*	*clefG2	*
*k[b-]	*	*k[b-]	*	*k[b-]	*	*k[b-]	*	*k[b-]	*	*k[b-]	*	*k[b-]	*	*k[b-]	*
*F:	*	*F:	*	*F:	*	*F:	*	*F:	*	*F:	*	*F:	*	*F:	*
*M2/2	*	*M2/2	*	*M2/2	*	*M2/2	*	*M2/2	*	*M2/2	*	*M2/2	*	*M2/2	*
*met(c|)	*	*met(c|)	*	*met(c|)	*	*met(c|)	*	*met(c|)	*	*met(c|)	*	*met(c|)	*	*met(c|)	*
=1-	=1-	=1-	=1-	=1-	=1-	=1-	=1-	=1-	=1-	=1-	=1-	=1-	=1-	=1-	=1-
!	!	!	!	!	!	!	!	!	!	!	!	!	!	!LO:TX:t=P:problem=oddech/cezura na dole:global	!
0r	.	0r	.	0r	.	0r	.	2.f\	An-	2.a\	An-	2.cc\	An-	0r	.
.	.	.	.	.	.	.	.	4f\	-ge-	4a\	-ge-	4cc\	-ge-	.	.
=2-	=2-	=2-	=2-	=2-	=2-	=2-	=2-	=2-	=2-	=2-	=2-	=2-	=2-	=2-	=2-
.	.	.	.	.	.	.	.	1f	-le	1a	-le	1cc	-le	.	.
=3-	=3-	=3-	=3-	=3-	=3-	=3-	=3-	=3-	=3-	=3-	=3-	=3-	=3-	=3-	=3-
2.B-/	An-	2.f\	An-	2.b-\	An-	2.dd\	An-	2.B-/	De-	2b-\	De-	2.dd\	De-	2.ff\	An-
.	.	.	.	.	.	.	.	.	.	2f\	-i	.	.	.	.
4B-/	-ge-	4f\	-ge-	4b-\	-ge-	4dd\	-ge-	8A/L	.	.	.	8cc\L	.	4ff\	-ge-
.	.	.	.	.	.	.	.	8G/J	.	.	.	8b-\J	.	.	.
=4-	=4-	=4-	=4-	=4-	=4-	=4-	=4-	=4-	=4-	=4-	=4-	=4-	=4-	=4-	=4-
2.f\	-le	2f\	-le	2a\	-le	0cc	-le	4F/	.	2.f\	An-	2.cc\	.	1ff	-le
.	.	.	.	.	.	.	.	4G/	.	.	.	.	.	.	.
.	.	2c/	De-	2cc\	De-	.	.	4A/	.	.	.	.	.	.	.
8e\L	.	.	.	.	.	.	.	4B-/	.	4f\	-ge-	8b-\L	.	.	.
8d\J	.	.	.	.	.	.	.	.	.	.	.	8a\J	.	.	.
=5-	=5-	=5-	=5-	=5-	=5-	=5-	=5-	=5-	=5-	=5-	=5-	=5-	=5-	=5-	=5-
4c/	De-	2c/	-i	1cc	-i	.	.	2.c/	.	1g	-le	2.g/	.	4ee\	De-
4d\	.	.	.	.	.	.	.	.	.	.	.	.	.	4dd\	.
4e\	.	2.g\	An-	.	.	.	.	.	.	.	.	.	.	4ee\	.
4f\	.	.	.	.	.	.	.	8B-/L	.	.	.	4a\	.	4ff\	.
.	.	.	.	.	.	.	.	8A/J	.	.	.	.	.	.	.
=6-	=6-	=6-	=6-	=6-	=6-	=6-	=6-	=6-	=6-	=6-	=6-	=6-	=6-	=6-	=6-
1g	.	.	.	2.dd\	An-	2.b-/	De-	2.G/	.	2g\	De-	2.b-\	.	2.gg\	.
.	.	4g\	-ge-	.	.	.	.	.	.	.	.	.	.	.	.
.	.	2d/	-le	.	.	.	.	.	.	2d/	-i	.	.	.	.
.	.	.	.	4dd\	-ge-	4cc\	.	4A/	.	.	.	8a\L	.	8ff\L	.
*	*	*	*	*	*	*	*	*	*	*	*	*	*	*custos:dd	*
.	.	.	.	.	.	.	.	.	.	.	.	8g\J	.	8ee\J	.
!	!	!	!	!	!	!	!	!	!	!	!	!	!	!LO:LB:g=original	!
=7-	=7-	=7-	=7-	=7-	=7-	=7-	=7-	=7-	=7-	=7-	=7-	=7-	=7-	=7-	=7-
2f\	-i	2d/	De-	1b-	-le	2.dd\	.	2.B-/	.	4d/	An-	4f/	.	4dd\	.
.	.	.	.	.	.	.	.	.	.	4e/	.	4g/	.	4cc\	.
2B-/	An-	2f\	-i	.	.	.	.	.	.	4f\	.	4a\	.	4dd\	.
.	.	.	.	.	.	8cc\L	.	8A/L	.	4g\	.	4b-\	.	4ee\	.
*	*	*	*	*	*	*	*	*custos:F	*	*	*	*	*	*	*
.	.	.	.	.	.	8b-\J	.	8G/J	.	.	.	.	.	.	.
!	!	!	!	!	!	!	!	!LO:LB:g=original	!	!	!	!	!	!	!
=8-	=8-	=8-	=8-	=8-	=8-	=8-	=8-	=8-	=8-	=8-	=8-	=8-	=8-	=8-	=8-
2f\	-ge-	2f\	.	2.a\	De-	1cc	-i	4F/	.	1a	.	2.cc\	.	2ff\	.
.	.	.	.	.	.	.	.	4G/	.	.	.	.	.	.	.
2f\	-le	2.c/	An-	.	.	.	.	4A/	.	.	.	.	.	4gg\	.
.	.	.	.	4b-\	.	.	.	4B-/	.	.	.	8b-\L	.	4ff\	.
.	.	.	.	.	.	.	.	.	.	.	.	8a\J	.	.	.
=9-	=9-	=9-	=9-	=9-	=9-	=9-	=9-	=9-	=9-	=9-	=9-	=9-	=9-	=9-	=9-
2c/	De-	.	.	2.cc\	.	2.cc\	An-	2c/	.	2g\	-ge-	2g/	.	2ee\	.
.	.	4c/	-ge-	.	.	.	.	.	.	.	.	.	.	.	.
2F/	-i	2c/	-le	.	.	.	.	2f\	.	2f\	-le	4a\	.	1ff\	.
*	*	*	*	*	*	*	*	*	*	*	*	*custos:cc	*	*	*
.	.	.	.	8b-\L	.	4cc\	-ge-	.	.	.	.	4b-\	.	.	.
.	.	.	.	8a\J	.	.	.	.	.	.	.	.	.	.	.
!	!	!	!	!	!	!	!	!	!	!	!	!LO:LB:g=original	!	!	!
=10-	=10-	=10-	=10-	=10-	=10-	=10-	=10-	=10-	=10-	=10-	=10-	=10-	=10-	=10-	=10-
4c/	An-	0c	De-	1.g	.	1cc	-le	0c	.	0g	De-	0cc	.	.	.
4d\	.	.	.	.	.	.	.	.	.	.	.	.	.	.	.
4e\	-ge-	.	.	.	.	.	.	.	.	.	.	.	.	4ee\	.
*custos:g	*	*	*	*	*	*	*	*	*	*	*	*	*	*	*
4f\	.	.	.	.	.	.	.	.	.	.	.	.	.	4dd\	.
!LO:PB:g=original	!	!	!	!	!	!	!	!	!	!	!	!	!	!	!
=11-	=11-	=11-	=11-	=11-	=11-	=11-	=11-	=11-	=11-	=11-	=11-	=11-	=11-	=11-	=11-
2g\	-le	.	.	.	.	1cc	De-	.	.	.	.	.	.	1ee	.
2c/	De-	.	.	2b-\	.	.	.	.	.	.	.	.	.	.	.
.	.	.	.	.	.	.	.	.	.	.	.	.	.	.	.
=12-	=12-	=12-	=12-	=12-	=12-	=12-	=12-	=12-	=12-	=12-	=12-	=12-	=12-	=12-	=12-
1f	-i	1c	-i	1cc	-i	1cc	-i	1F	-i	1a	-i	1a	-i	1ff	-i
=13-	=13-	=13-	=13-	=13-	=13-	=13-	=13-	=13-	=13-	=13-	=13-	=13-	=13-	=13-	=13-
!	!	!	!	!	!	!	!	!LO:N:vis=0	!	!LO:N:vis=0	!	!LO:N:vis=0	!	!LO:N:vis=0	!
2f\	qui	2f\	qui	2a\	qui	2cc\	qui	0r	.	0r	.	0r	.	0r	.
2d\	cus-	2f\	cuſ-	2b-\	cus-	2dd\	cus-	.	.	.	.	.	.	.	.
=14-	=14-	=14-	=14-	=14-	=14-	=14-	=14-	=14-	=14-	=14-	=14-	=14-	=14-	=14-	=14-
*	*	*custos:e	*	*	*	*	*	*	*	*	*	*	*	*	*
2e-X\	-tos	2g\	-tos	2g/	-tos	2b-/	-tos	.	.	.	.	.	.	.	.
!	!	!LO:PB:g=original	!	!	!	!	!	!	!	!	!	!	!	!	!
2c/	es	2e\	es	2a\	es	2cc\	es	.	.	.	.	.	.	.	.
=15-	=15-	=15-	=15-	=15-	=15-	=15-	=15-	=15-	=15-	=15-	=15-	=15-	=15-	=15-	=15-
*	*	*	*	*	*	*	*	*	*	*custos:a	*	*	*	*	*
4B-/	me-	1f	me-	1b-	me-	1dd	me-	1r	.	1r	.	1r	.	1r	.
4c/	.	.	.	.	.	.	.	.	.	.	.	.	.	.	.
4d\	.	.	.	.	.	.	.	.	.	.	.	.	.	.	.
4eny\	.	.	.	.	.	.	.	.	.	.	.	.	.	.	.
!	!	!	!	!	!	!	!	!	!	!LO:LB:g=original	!	!	!	!	!
=16-	=16-	=16-	=16-	=16-	=16-	=16-	=16-	=16-	=16-	=16-	=16-	=16-	=16-	=16-	=16-
*	*	*	*	*custos:a	*	*	*	*	*	*	*	*	*	*	*
1f	-i	1f	-i	1a	-i	1cc	-i	2f\	qui	1a	qui	2cc\	qui	2ff\	qui
.	.	.	.	.	.	.	.	2f\	cu-	.	.	2cc\	cus-	2ff\	cuſ-
!	!	!	!	!LO:LB:g=original	!	!	!	!	!	!	!	!	!	!	!
=17-	=17-	=17-	=17-	=17-	=17-	=17-	=17-	=17-	=17-	=17-	=17-	=17-	=17-	=17-	=17-
0r	.	1r	.	1r	.	1r	.	2B-/	-stos	2b-\	cus-	2dd\	-tos	2dd\	-tos
.	.	.	.	.	.	.	.	2c/	es	2g\	-tos	2cc\	es	2ee\	es
=18-	=18-	=18-	=18-	=18-	=18-	=18-	=18-	=18-	=18-	=18-	=18-	=18-	=18-	=18-	=18-
.	.	2r	.	2r	.	2r	.	1d	me-	4d/	es	2.a\	me-	1ff	me-
.	.	.	.	.	.	.	.	.	.	4e/	.	.	.	.	.
.	.	2d/	me	2a\	me	2dd\	me	.	.	4f\	.	.	.	.	.
.	.	.	.	.	.	.	.	.	.	4d/	.	4b-\	-i	.	.
=19-	=19-	=19-	=19-	=19-	=19-	=19-	=19-	=19-	=19-	=19-	=19-	=19-	=19-	=19-	=19-
*	*	*	*	*	*	*custos:cc	*	*	*	*	*	*	*	*	*
2r	.	1g	ti-	1cc	ti-	1ee	ti-	1c	-i	1g	me-	2cc\	.	1ee	-i
2c/	me	.	.	.	.	.	.	.	.	.	.	4r	.	.	.
.	.	.	.	.	.	.	.	.	.	.	.	4g/	me	.	.
!	!	!	!	!	!	!LO:PB:g=original	!	!	!	!	!	!	!	!	!
=20-	=20-	=20-	=20-	=20-	=20-	=20-	=20-	=20-	=20-	=20-	=20-	=20-	=20-	=20-	=20-
1f	ti-	2f\	-bi	2cc\	-bi	2cc\	-bi	2r	.	1f	-i	2.a\	ti-	1r	.
.	.	2f\	co-	2a\	co-	2cc\	com-	2F/	me	.	.	.	.	.	.
.	.	.	.	.	.	.	.	.	.	.	.	4g/	.	.	.
=21-	=21-	=21-	=21-	=21-	=21-	=21-	=21-	=21-	=21-	=21-	=21-	=21-	=21-	=21-	=21-
2d\	-bi	1f	-miſ-	1b-	-miſ-	1dd	-miſ-	2.B-/	ti-	2r	.	2f/	-bi	2r	.
2d\	co-	.	.	.	.	.	.	.	.	2f\	me	2b-\	.	2ff\	me
.	.	.	.	.	.	.	.	4A/	.	.	.	.	.	.	.
=22-	=22-	=22-	=22-	=22-	=22-	=22-	=22-	=22-	=22-	=22-	=22-	=22-	=22-	=22-	=22-
1g	-miſ-	2d/	-ſum	2b-\	-sum	2dd\	-sum	2G/	-bi	2b-\	ti-	2.b-\	com-	2.gg\	ti-
.	.	2g\	me	2b-\	me	2dd\	me	2G/	com-	2g\	-bi	.	.	.	.
.	.	.	.	.	.	.	.	.	.	.	.	4a\	-miſ-	4ff\	.
=23-	=23-	=23-	=23-	=23-	=23-	=23-	=23-	=23-	=23-	=23-	=23-	=23-	=23-	=23-	=23-
1c	-sum	1g	ti-	1cc	ti-	1ee	ti-	4c/	-miſ-	1g	co-	2g/	-sum	2ee\	-bi
.	.	.	.	.	.	.	.	4B-/	.	.	.	.	.	.	.
*	*	*	*	*	*	*	*	*	*	*	*	*	*	*custos:ff	*
.	.	.	.	.	.	.	.	4A/	-sum	.	.	4r	.	2ee\	com-
.	.	.	.	.	.	.	.	4G/	.	.	.	4g/	me	.	.
!	!	!	!	!	!	!	!	!	!	!	!	!	!	!LO:LB:g=original	!
=24-	=24-	=24-	=24-	=24-	=24-	=24-	=24-	=24-	=24-	=24-	=24-	=24-	=24-	=24-	=24-
*	*	*	*	*	*	*	*	*custos:c	*	*	*	*	*	*	*
1r	.	2f\	-bi	2a\	-bi	2cc\	-bi	2F/	.	2a\	-miſ-	2.cc\	ti-	2ff\	-miſ-
!	!	!	!	!	!	!	!	!LO:LB:g=original	!	!	!	!	!	!	!
.	.	2g\	co-	2cc\	co-	2ee\	com-	2c/	me	2g\	-sum	.	.	2ee\	-ſum
.	.	.	.	.	.	.	.	.	.	.	.	4b-\	.	.	.
=25-	=25-	=25-	=25-	=25-	=25-	=25-	=25-	=25-	=25-	=25-	=25-	=25-	=25-	=25-	=25-
*	*	*	*	*	*	*	*	*	*	*	*	*custos:a	*	*	*
2r	.	1f	-miſ-	1cc	-miſ-	1ff	-miſ-	2.f\	ti-	1r	.	2a\	-bi	1r	.
!	!	!	!	!	!	!	!	!	!	!	!	!LO:LB:g=original	!	!	!
2F/	me	.	.	.	.	.	.	.	.	.	.	2a\	com-	.	.
.	.	.	.	.	.	.	.	4e\	-bi	.	.	.	.	.	.
=26-	=26-	=26-	=26-	=26-	=26-	=26-	=26-	=26-	=26-	=26-	=26-	=26-	=26-	=26-	=26-
1B-	ti-	2f,\	-sum	2dd\	-sum	2ff\	-ſum	2d\	.	2r	.	1b-	-miſ-	2r	.
.	.	2f\	me	4r	.	2dd\	me	2d\	com-	2f\	me	.	.	2ff\	me
.	.	.	.	4b-\	me	.	.	.	.	.	.	.	.	.	.
=27-	=27-	=27-	=27-	=27-	=27-	=27-	=27-	=27-	=27-	=27-	=27-	=27-	=27-	=27-	=27-
*custos:G	*	*	*	*	*	*	*	*	*	*	*	*	*	*	*
2G/	-bi	1g	ti-	1dd	ti-	1dd	ti-	4g\	-miſ-	1b-	ti-	2b-\	-sum	2.gg\	ti-
.	.	.	.	.	.	.	.	4f\	.	.	.	.	.	.	.
!LO:LB:g=original	!	!	!	!	!	!	!	!	!	!	!	!	!	!	!
2G/	-co-	.	.	.	.	.	.	4e\	.	.	.	4r	.	.	.
.	.	.	.	.	.	.	.	4d\	.	.	.	4b-\	me	4ff\	.
=28-	=28-	=28-	=28-	=28-	=28-	=28-	=28-	=28-	=28-	=28-	=28-	=28-	=28-	=28-	=28-
1c	-miſ-	2g\	-bi	2cc\	-bi	2ee\	-bi	2c/	-sum	2g\	-bi	2.cc\	ti-	2ee\	-bi
.	.	2c/	.	2g/	co-	2cc\	co-	2c/	.	2g\	co-	.	.	2ee\	com-
.	.	.	.	.	.	.	.	.	.	.	.	4b-\	.	.	.
=29-	=29-	=29-	=29-	=29-	=29-	=29-	=29-	=29-	=29-	=29-	=29-	=29-	=29-	=29-	=29-
1F	-sum	2c/	co-	1a	-miſ-	1cc	-miſ-	4f\	com-	1f	-miſ-	2a\	-bi	2ff\	.
.	.	.	.	.	.	.	.	4e\	.	.	.	.	.	.	.
.	.	2f\	-miſ-	.	.	.	.	4d\	-miſ-	.	.	2cc\	com-	8ee\L	.
.	.	.	.	.	.	.	.	.	.	.	.	.	.	8dd\J	.
.	.	.	.	.	.	.	.	4c/	.	.	.	.	.	4ee\	.
=30-	=30-	=30-	=30-	=30-	=30-	=30-	=30-	=30-	=30-	=30-	=30-	=30-	=30-	=30-	=30-
4B-/	co-	1f	-sum.	2b-\	-sum	1dd,	-sum	2.B-/	.	2f\	-sum	4g/	.	1ff	.
4c/	.	.	.	.	.	.	.	.	.	.	.	4a\	.	.	.
4d\	-miſ-	.	.	2b-\	me	.	.	.	.	2f\	co-	2b-\	-miſ-	.	.
4e\	.	.	.	.	.	.	.	8A/L	.	.	.	.	.	.	.
.	.	.	.	.	.	.	.	8G/J	.	.	.	.	.	.	.
=31-	=31-	=31-	=31-	=31-	=31-	=31-	=31-	=31-	=31-	=31-	=31-	=31-	=31-	=31-	=31-
*	*	*custos:c	*	*	*	*	*	*	*	*custos:g	*	*	*	*	*
1f	.	2r	.	1cc	ti-	1cc	com-	4F/	.	1a	-miſ-	1a	-sum	2ff\	.
.	.	.	.	.	.	.	.	4G/	.	.	.	.	.	.	.
!	!	!LO:LB:g=original	!	!	!	!	!	!	!	!	!	!	!	!	!
.	.	2c/	co-	.	.	.	.	4A/	.	.	.	.	.	4ee\	.
.	.	.	.	.	.	.	.	4B-/	.	.	.	.	.	4dd\	.
!	!	!	!	!	!	!	!	!	!	!LO:LB:g=original	!	!	!	!	!
=32-	=32-	=32-	=32-	=32-	=32-	=32-	=32-	=32-	=32-	=32-	=32-	=32-	=32-	=32-	=32-
1c	.	0c	-miſ-	2cc\	-bi	0cc	-miſ-	1c	.	1g	-sum	1g	com-	4ee\	.
.	.	.	.	.	.	.	.	.	.	.	.	.	.	2ff\	.
.	.	.	.	2g/	co-	.	.	.	.	.	.	.	.	.	.
.	.	.	.	.	.	.	.	.	.	.	.	.	.	4ee\	-miſ-
=33-	=33-	=33-	=33-	=33-	=33-	=33-	=33-	=33-	=33-	=33-	=33-	=33-	=33-	=33-	=33-
*	*	*	*	*	*	*	*	*custos:c	*	*	*	*	*	*	*
!	!	!	!	!	!	!	!	!	!	!	!	!LO:N:vis=2	!	!	!
!	!	!	!	!	!	!	!	!	!	!	!	!LO:TX:a:t=P:problem=fragment niewyraźnie zapisany. Rytm	!	!	!
0f	-sum	.	.	1a	-miſ-	.	.	0F	-sum	2r	.	4a\	-miſ-	1ff	-ſum
.	.	.	.	.	.	.	.	.	.	.	.	4b-yy	-sum	.	.
.	.	.	.	.	.	.	.	.	.	4f\	pie-	4r	.	.	.
.	.	.	.	.	.	.	.	.	.	4g\	.	8a\L	pie-	.	.
.	.	.	.	.	.	.	.	.	.	.	.	8b-\J	.	.	.
=34-	=34-	=34-	=34-	=34-	=34-	=34-	=34-	=34-	=34-	=34-	=34-	=34-	=34-	=34-	=34-
*	*	*	*	*custos:a	*	*	*	*	*	*	*	*	*	*	*
.	.	1c	-ſum.	1a	-sum.	1cc	-sum	.	.	2a\	-ta-	2cc\	-ta-	2r	.
.	.	.	.	.	.	.	.	.	.	4f\	-te	4a\	-te	4r	.
.	.	.	.	.	.	.	.	.	.	4f\	Su-	4b-\	su-	8cc\L	pie-
.	.	.	.	.	.	.	.	.	.	.	.	.	.	8dd\J	.
!	!	!	!	!LO:LB:g=original	!	!	!	!LO:PB:g=original	!	!	!	!	!	!	!
=35-	=35-	=35-	=35-	=35-	=35-	=35-	=35-	=35-	=35-	=35-	=35-	=35-	=35-	=35-	=35-
00r	.	00r	.	00r	.	00r	.	4r	.	1g	-per-	2cc\	-per-	2ee-X\	-ta-
.	.	.	.	.	.	.	.	8c\L	pie-	.	.	.	.	.	.
.	.	.	.	.	.	.	.	8d\J	.	.	.	.	.	.	.
*	*	*	*	*	*	*	*	*	*	*	*	*custos:dd	*	*	*
.	.	.	.	.	.	.	.	2e-X\	-ta-	.	.	2g/	-na	4b-/	-te
.	.	.	.	.	.	.	.	.	.	.	.	.	.	4cc\	su-
!	!	!	!	!	!	!	!	!	!	!	!	!LO:PB:g=original	!	!	!
=36-	=36-	=36-	=36-	=36-	=36-	=36-	=36-	=36-	=36-	=36-	=36-	=36-	=36-	=36-	=36-
*	*	*	*	*	*	*	*	*	*	*	*	*	*	*custos:cc	*
.	.	.	.	.	.	.	.	4B-/	-te	1f	-na	4r	.	1dd	-per-
.	.	.	.	.	.	.	.	4c/	su-	.	.	8dd\L	pie-	.	.
.	.	.	.	.	.	.	.	.	.	.	.	8ee\J	.	.	.
.	.	.	.	.	.	.	.	2d\	-per-	.	.	2ff\	-ta-	.	.
!	!	!	!	!	!	!	!	!	!	!	!	!	!	!LO:PB:g=original	!
=37-	=37-	=37-	=37-	=37-	=37-	=37-	=37-	=37-	=37-	=37-	=37-	=37-	=37-	=37-	=37-
.	.	.	.	.	.	.	.	2A/	-na	4r	.	4cc\	-te	2cc\	-na
.	.	.	.	.	.	.	.	.	.	8e/L	pie-	4a\	su-	.	.
.	.	.	.	.	.	.	.	.	.	8f/J	.	.	.	.	.
.	.	.	.	.	.	.	.	2r	.	2g\	-ta-	2.dd\	-per-	4r	.
.	.	.	.	.	.	.	.	.	.	.	.	.	.	8dd\L	pie-
.	.	.	.	.	.	.	.	.	.	.	.	.	.	8eeny\J	.
=38-	=38-	=38-	=38-	=38-	=38-	=38-	=38-	=38-	=38-	=38-	=38-	=38-	=38-	=38-	=38-
.	.	.	.	.	.	.	.	4r	.	4f\	-te	.	.	2ff\	-ta-
.	.	.	.	.	.	.	.	8d\L	pie-	4g\	su-	4cc\	-na	.	.
.	.	.	.	.	.	.	.	8eny\J	.	.	.	.	.	.	.
.	.	.	.	.	.	.	.	2f\	-ta-	2a\	-per-	4r	.	4cc\	-te
.	.	.	.	.	.	.	.	.	.	.	.	8a\L	pie-	4dd\	su-
.	.	.	.	.	.	.	.	.	.	.	.	8b-\J	.	.	.
=39-	=39-	=39-	=39-	=39-	=39-	=39-	=39-	=39-	=39-	=39-	=39-	=39-	=39-	=39-	=39-
00r	.	00r	.	00r	.	00r	.	4c/	-te	1g	-na	2cc\	-ta-	2ee-X\	-per-
.	.	.	.	.	.	.	.	4d\	su-	.	.	.	.	.	.
.	.	.	.	.	.	.	.	2e-X\	-per-	.	.	4g/	-te	2b-/	-na
.	.	.	.	.	.	.	.	.	.	.	.	4a\	su-	.	.
=40-	=40-	=40-	=40-	=40-	=40-	=40-	=40-	=40-	=40-	=40-	=40-	=40-	=40-	=40-	=40-
.	.	.	.	.	.	.	.	2B-/	-na	4r	.	2b-\	-per-	2r	.
.	.	.	.	.	.	.	.	.	.	8e/L	pie-	.	.	.	.
.	.	.	.	.	.	.	.	.	.	8f/J	.	.	.	.	.
.	.	.	.	.	.	.	.	2r	.	2g\	-ta-	2cc\	-na	4r	.
.	.	.	.	.	.	.	.	.	.	.	.	.	.	8eeny\L	pie-
.	.	.	.	.	.	.	.	.	.	.	.	.	.	8ff\J	.
=41-	=41-	=41-	=41-	=41-	=41-	=41-	=41-	=41-	=41-	=41-	=41-	=41-	=41-	=41-	=41-
.	.	.	.	.	.	.	.	4r	.	2g\	-te	4r	.	2gg\	-ta-
.	.	.	.	.	.	.	.	8eny\L	pie-	.	.	8g/L	pie-	.	.
.	.	.	.	.	.	.	.	8f\J	.	.	.	8a/J	.	.	.
.	.	.	.	.	.	.	.	2g\	-ta-	2g\	su-	2b-\	-ta-	4dd\	-te
.	.	.	.	.	.	.	.	.	.	.	.	.	.	4ee\	su-
=42-	=42-	=42-	=42-	=42-	=42-	=42-	=42-	=42-	=42-	=42-	=42-	=42-	=42-	=42-	=42-
.	.	.	.	.	.	.	.	4d\	-te	2a\	-per-	4f/	-te	2ff\	-per-
.	.	.	.	.	.	.	.	4e\	su-	.	.	4g/	su-	.	.
.	.	.	.	.	.	.	.	2f\	-per-	2f\	-na	4a\	-per-	2cc\	-na
.	.	.	.	.	.	.	.	.	.	.	.	4b-\	.	.	.
=43-	=43-	=43-	=43-	=43-	=43-	=43-	=43-	=43-	=43-	=43-	=43-	=43-	=43-	=43-	=43-
*	*	*	*	*	*	*	*	*custos:e	*	*	*	*	*	*	*
00r	.	0r	.	0r	.	00r	.	2c/	-na	4r	.	1cc	-na	2r	.
.	.	.	.	.	.	.	.	.	.	8e/L	pie-	.	.	.	.
.	.	.	.	.	.	.	.	.	.	8f/J	.	.	.	.	.
*	*	*	*	*	*	*	*	*	*	*custos:g	*	*	*	*	*
!	!	!	!	!	!	!	!	!LO:LB:g=original	!	!	!	!	!	!	!
.	.	.	.	.	.	.	.	2r	.	2g\	-ta-	.	.	4r	.
.	.	.	.	.	.	.	.	.	.	.	.	.	.	8ee\L	pie-
.	.	.	.	.	.	.	.	.	.	.	.	.	.	8ff\J	.
!	!	!	!	!	!	!	!	!	!	!LO:PB:g=original	!	!	!	!	!
=44-	=44-	=44-	=44-	=44-	=44-	=44-	=44-	=44-	=44-	=44-	=44-	=44-	=44-	=44-	=44-
.	.	.	.	.	.	.	.	4r	.	2g\	-te	4r	.	2gg\	-ta-
.	.	.	.	.	.	.	.	8e\L	pie-	.	.	8g\L	pie-	.	.
.	.	.	.	.	.	.	.	8f\J	.	.	.	8a\J	.	.	.
*	*	*	*	*	*	*	*	*	*	*	*	*custos:a	*	*	*
.	.	.	.	.	.	.	.	2g\	-ta-	2g\	su-	2b-\	-ta-	4dd\	-te
.	.	.	.	.	.	.	.	.	.	.	.	.	.	4ee\	su-
!	!	!	!	!	!	!	!	!	!	!	!	!LO:LB:g=original	!	!	!
=45-	=45-	=45-	=45-	=45-	=45-	=45-	=45-	=45-	=45-	=45-	=45-	=45-	=45-	=45-	=45-
.	.	1r	.	1r	.	.	.	4d\	-te	1a	-per-	4a\	-te	2ff\	-per-
.	.	.	.	.	.	.	.	4e\	su-	.	.	4g/	.	.	.
.	.	.	.	.	.	.	.	2f\	-per-	.	.	4a\	su-	1cc\	-na
.	.	.	.	.	.	.	.	.	.	.	.	4b-\	-per-	.	.
=46-	=46-	=46-	=46-	=46-	=46-	=46-	=46-	=46-	=46-	=46-	=46-	=46-	=46-	=46-	=46-
.	.	2r	.	2r	.	.	.	2c/	-na	2g\	-na	2cc\	-na	.	.
*	*	*	*	*	*	*	*	*	*	*	*	*	*	*custos:gg	*
.	.	4f\	Pie-	4a\	pie-	.	.	2r	.	2r	.	2r	.	2r	.
.	.	4g\	-ta-	4b-\	.	.	.	.	.	.	.	.	.	.	.
!	!	!	!	!	!	!	!	!	!	!	!	!	!	!LO:LB:g=original	!
=47-	=47-	=47-	=47-	=47-	=47-	=47-	=47-	=47-	=47-	=47-	=47-	=47-	=47-	=47-	=47-
1r	.	2a\	-te	2cc\	-ta-	2r	.	00r	.	00r	.	00r	.	00r	.
.	.	4f\	.	4a\	-te	4r	.	.	.	.	.	.	.	.	.
.	.	4f\	su-	4b-\	su-	8cc\L	pie-	.	.	.	.	.	.	.	.
*	*	*	*	*	*	*custos:ee	*	*	*	*	*	*	*	*	*
.	.	.	.	.	.	8dd\J	.	.	.	.	.	.	.	.	.
!	!	!	!	!	!	!LO:LB:g=original	!	!	!	!	!	!	!	!	!
=48-	=48-	=48-	=48-	=48-	=48-	=48-	=48-	=48-	=48-	=48-	=48-	=48-	=48-	=48-	=48-
4c/	pie-	1g	-per-	2cc\	-per-	2ee\	-ta-	.	.	.	.	.	.	.	.
4d\	-ta-	.	.	.	.	.	.	.	.	.	.	.	.	.	.
2e-X\	.	.	.	2g/	-na	4b-/	-te	.	.	.	.	.	.	.	.
.	.	.	.	.	.	4cc\	su-	.	.	.	.	.	.	.	.
=49-	=49-	=49-	=49-	=49-	=49-	=49-	=49-	=49-	=49-	=49-	=49-	=49-	=49-	=49-	=49-
4B-/	-te	1f	-na.	4r	.	1dd	-per-	.	.	.	.	.	.	.	.
4c/	su-	.	.	8dd\L	pie-	.	.	.	.	.	.	.	.	.	.
.	.	.	.	8ee\J	.	.	.	.	.	.	.	.	.	.	.
2d\	-per-	.	.	2ff\	-ta-	.	.	.	.	.	.	.	.	.	.
=50-	=50-	=50-	=50-	=50-	=50-	=50-	=50-	=50-	=50-	=50-	=50-	=50-	=50-	=50-	=50-
2A/	-na	4r	.	4cc\	-te	2cc\	-na	.	.	.	.	.	.	.	.
.	.	8e/L	pie-	4g\	su-	.	.	.	.	.	.	.	.	.	.
.	.	8f/J	.	.	.	.	.	.	.	.	.	.	.	.	.
2r	.	2g\	-ta-	2.dd\	-per-	4r	.	.	.	.	.	.	.	.	.
.	.	.	.	.	.	8dd\L	pie-	.	.	.	.	.	.	.	.
.	.	.	.	.	.	8ee\J	.	.	.	.	.	.	.	.	.
=51-	=51-	=51-	=51-	=51-	=51-	=51-	=51-	=51-	=51-	=51-	=51-	=51-	=51-	=51-	=51-
4r	.	4f\	-te	.	.	2ff\	-ta-	00r	.	00r	.	00r	.	00r	.
8d\L	pie-	4g\	su-	4cc\	-na	.	.	.	.	.	.	.	.	.	.
8eny\J	.	.	.	.	.	.	.	.	.	.	.	.	.	.	.
2f\	-ta-	2a\	-per-	4r	.	4cc\	-te	.	.	.	.	.	.	.	.
.	.	.	.	8a\L	pie-	4dd\	su-	.	.	.	.	.	.	.	.
.	.	.	.	8b-\J	.	.	.	.	.	.	.	.	.	.	.
=52-	=52-	=52-	=52-	=52-	=52-	=52-	=52-	=52-	=52-	=52-	=52-	=52-	=52-	=52-	=52-
4c/	-te	1g	-na	2cc\	-ta-	2ee-X\	-per-	.	.	.	.	.	.	.	.
*custos:e	*	*	*	*	*	*	*	*	*	*	*	*	*	*	*
4d\	su-	.	.	.	.	.	.	.	.	.	.	.	.	.	.
!LO:LB:g=original	!	!	!	!	!	!	!	!	!	!	!	!	!	!	!
2e\	-per-	.	.	4g/	-te	2b-/	-na	.	.	.	.	.	.	.	.
.	.	.	.	4a\	su-	.	.	.	.	.	.	.	.	.	.
=53-	=53-	=53-	=53-	=53-	=53-	=53-	=53-	=53-	=53-	=53-	=53-	=53-	=53-	=53-	=53-
2B-/	-na	4r	.	2b-\	-per-	2r	.	.	.	.	.	.	.	.	.
.	.	8e/L	pie-	.	.	.	.	.	.	.	.	.	.	.	.
.	.	8f/J	.	.	.	.	.	.	.	.	.	.	.	.	.
2r	.	2g\	-ta-	2cc\	-na	4r	.	.	.	.	.	.	.	.	.
.	.	.	.	.	.	8eeny\L	pie-	.	.	.	.	.	.	.	.
.	.	.	.	.	.	8ff\J	.	.	.	.	.	.	.	.	.
=54-	=54-	=54-	=54-	=54-	=54-	=54-	=54-	=54-	=54-	=54-	=54-	=54-	=54-	=54-	=54-
4r	.	2g\	-te	4r	.	2gg\	-ta-	.	.	.	.	.	.	.	.
8e\L	pie-	.	.	8g/L	pie-	.	.	.	.	.	.	.	.	.	.
8f\J	.	.	.	8a/J	.	.	.	.	.	.	.	.	.	.	.
*	*	*custos:a	*	*	*	*	*	*	*	*	*	*	*	*	*
2g\	-ta-	2g\	su[[p]]-	2b-\	-ta-	4dd\	-te	.	.	.	.	.	.	.	.
.	.	.	.	.	.	4ee\	su-	.	.	.	.	.	.	.	.
!	!	!LO:LB:g=original	!	!	!	!	!	!	!	!	!	!	!	!	!
=55-	=55-	=55-	=55-	=55-	=55-	=55-	=55-	=55-	=55-	=55-	=55-	=55-	=55-	=55-	=55-
4d\	-te	2a\	-per-	4f/	-te	2ff\	-per-	00r	.	00r	.	00r	.	00r	.
4e\	su-	.	.	4g/	su-	.	.	.	.	.	.	.	.	.	.
2f\	-per-	2f\	-na	4a\	.	2cc\	-na	.	.	.	.	.	.	.	.
.	.	.	.	4b-\	-per-	.	.	.	.	.	.	.	.	.	.
=56-	=56-	=56-	=56-	=56-	=56-	=56-	=56-	=56-	=56-	=56-	=56-	=56-	=56-	=56-	=56-
*	*	*	*	*custos:g	*	*	*	*	*	*	*	*	*	*	*
2c/	-na	4r	.	1cc	-na	2r	.	.	.	.	.	.	.	.	.
.	.	8e/L	pie-	.	.	.	.	.	.	.	.	.	.	.	.
.	.	8f/J	.	.	.	.	.	.	.	.	.	.	.	.	.
2r	.	2g\	-ta-	.	.	4r	.	.	.	.	.	.	.	.	.
.	.	.	.	.	.	8ee\L	pie-	.	.	.	.	.	.	.	.
.	.	.	.	.	.	8ff\J	.	.	.	.	.	.	.	.	.
!	!	!	!	!LO:LB:g=original	!	!	!	!	!	!	!	!	!	!	!
=57-	=57-	=57-	=57-	=57-	=57-	=57-	=57-	=57-	=57-	=57-	=57-	=57-	=57-	=57-	=57-
4r	.	2g\	-te	4r	.	2gg\	-ta-	.	.	.	.	.	.	.	.
8e\L	pie-	.	.	8g/L	pie-	.	.	.	.	.	.	.	.	.	.
8f\J	.	.	.	8a/J	.	.	.	.	.	.	.	.	.	.	.
2g\	-ta-	2g\	su-	2b-\	-ta-	4dd\	-te	.	.	.	.	.	.	.	.
.	.	.	.	.	.	4ee\	su-	.	.	.	.	.	.	.	.
=58-	=58-	=58-	=58-	=58-	=58-	=58-	=58-	=58-	=58-	=58-	=58-	=58-	=58-	=58-	=58-
4d\	-te	1a	-per-	4a\	-te	2ff\	-per-	.	.	.	.	.	.	.	.
4e\	su-	.	.	4g/	.	.	.	.	.	.	.	.	.	.	.
*	*	*	*	*	*	*custos:ee	*	*	*	*	*	*	*	*	*
2f\	-per-	.	.	4a\	su-	1cc\	-na.	.	.	.	.	.	.	.	.
.	.	.	.	4b-\	-per-	.	.	.	.	.	.	.	.	.	.
=59-	=59-	=59-	=59-	=59-	=59-	=59-	=59-	=59-	=59-	=59-	=59-	=59-	=59-	=59-	=59-
!	!	!	!	!	!	!	!	!	!	!	!	!	!	!LO:TX:a:t=P:problem=niedokładny zapis pauzy	!
2c/	-na	2g\	-na.	2cc\	-na	.	.	2r	.	2r	.	2r	.	2r	.
!	!	!	!	!	!	!LO:LB:g=original	!	!	!	!	!	!	!	!	!
2r	.	2r	.	2r	.	2r	.	2c/	su-	2g\	su-	2.cc\	su-	1gg\	su-
=60-	=60-	=60-	=60-	=60-	=60-	=60-	=60-	=60-	=60-	=60-	=60-	=60-	=60-	=60-	=60-
1r	.	1r	.	1r	.	1r	.	1G	-per-	1g	-per-	.	.	.	.
.	.	.	.	.	.	.	.	.	.	.	.	8b-\L	-per-	.	.
.	.	.	.	.	.	.	.	.	.	.	.	8a\J	.	.	.
.	.	.	.	.	.	.	.	.	.	.	.	2bny\	.	2gg\	-per-
=61-	=61-	=61-	=61-	=61-	=61-	=61-	=61-	=61-	=61-	=61-	=61-	=61-	=61-	=61-	=61-
2r	.	2r	.	2r	.	2r	.	2c/	-na	2g\	-na	2cc\	-na	2ee\	-na
2c/	su-	2g\	su-	2.cc\	su-	2ee\	su-	2r	.	2r	.	2r	.	2r	.
=62-	=62-	=62-	=62-	=62-	=62-	=62-	=62-	=62-	=62-	=62-	=62-	=62-	=62-	=62-	=62-
1g	-per-	1g	-per-	.	.	1dd	-per-	1r	.	1r	.	1r	.	1r	.
.	.	.	.	8b-\L	.	.	.	.	.	.	.	.	.	.	.
.	.	.	.	8a\J	.	.	.	.	.	.	.	.	.	.	.
.	.	.	.	2bny\	-per-	.	.	.	.	.	.	.	.	.	.
=63-	=63-	=63-	=63-	=63-	=63-	=63-	=63-	=63-	=63-	=63-	=63-	=63-	=63-	=63-	=63-
2c/	-na	2g\	-na	2cc\	-na	2ee\	-na	2r	.	2r	.	2r	.	2r	.
2r	.	2r	.	2r	.	2r	.	2c/	su-	2g\	su-	2cc\	su-	2ee\	su-
=64-	=64-	=64-	=64-	=64-	=64-	=64-	=64-	=64-	=64-	=64-	=64-	=64-	=64-	=64-	=64-
*custos:c	*	*	*	*	*	*	*	*	*	*	*	*	*	*	*
1r	.	1r	.	1r	.	1r	.	1f	-per-	1a	-per-	1cc	-per-	1ff	-per-
!LO:LB:g=original	!	!	!	!	!	!	!	!	!	!	!	!	!	!	!
=65-	=65-	=65-	=65-	=65-	=65-	=65-	=65-	=65-	=65-	=65-	=65-	=65-	=65-	=65-	=65-
2r	.	2r	.	2r	.	2r	.	2c/	-na	2g\	-na	2cc\	-na	2ee\	-na
2c/	su-	2g\	su-	1cc\	su-	2ee\	su-	2r	.	2r	.	2r	.	2r	.
=66-	=66-	=66-	=66-	=66-	=66-	=66-	=66-	=66-	=66-	=66-	=66-	=66-	=66-	=66-	=66-
1G	-per-	1g	-per-	.	.	1dd	-per-	1r	.	1r	.	1r	.	1r	.
.	.	.	.	2bny\	-per-	.	.	.	.	.	.	.	.	.	.
=67-	=67-	=67-	=67-	=67-	=67-	=67-	=67-	=67-	=67-	=67-	=67-	=67-	=67-	=67-	=67-
2c/	-na	2g\	-na	2cc\	-na	2ee\	-na	2r	.	2r	.	2r	.	2r	.
2r	.	2r	.	2r	.	2r	.	2f\	su-	2a\	su-	2cc\	su-	2ff\	su-
=68-	=68-	=68-	=68-	=68-	=68-	=68-	=68-	=68-	=68-	=68-	=68-	=68-	=68-	=68-	=68-
0r	.	0r	.	1r	.	0r	.	4c/	-per-	1g	-per-	1cc	-per-	1ee	-per-
.	.	.	.	.	.	.	.	4B-/	.	.	.	.	.	.	.
.	.	.	.	.	.	.	.	4A/	.	.	.	.	.	.	.
.	.	.	.	.	.	.	.	4G/	.	.	.	.	.	.	.
=69-	=69-	=69-	=69-	=69-	=69-	=69-	=69-	=69-	=69-	=69-	=69-	=69-	=69-	=69-	=69-
*	*	*	*	*	*	*	*	*custos:c	*	*	*	*	*	*	*
.	.	.	.	1r	.	.	.	1F	-na.	2a\	-na	1cc	-na	1ff	-na
.	.	.	.	.	.	.	.	.	.	2a\	pie-	.	.	.	.
!	!	!	!	!	!	!	!	!LO:LB:g=original	!	!	!	!	!	!	!
=70-	=70-	=70-	=70-	=70-	=70-	=70-	=70-	=70-	=70-	=70-	=70-	=70-	=70-	=70-	=70-
2c/	pie-	2g\	pie-	2b-y\	pie-	2cc\	pie-	2c/	pie-	1g	.	2cc\	pie-	2ee\	pie-
2c/	-ta-	2g\	-ta-	2b-\	-ta-	2cc\	-ta-	2c/	.	.	.	2cc\	-ta-	2ee\	.
=71-	=71-	=71-	=71-	=71-	=71-	=71-	=71-	=71-	=71-	=71-	=71-	=71-	=71-	=71-	=71-
*	*	*	*	*	*	*	*	*	*	*custos:f	*	*custos:b-	*	*	*
4f\	.	1f	-te	1a	-te	1cc	-te	4F/	-ta-	1a	-ta-	1cc	[[te]]-	2.ff\	-ta-
4e\	.	.	.	.	.	.	.	4G/	.	.	.	.	.	.	.
4d\	.	.	.	.	.	.	.	4A/	.	.	.	.	.	.	.
4c/	.	.	.	.	.	.	.	4F/	.	.	.	.	.	4ee\	.
!	!	!	!	!	!	!	!	!	!	!LO:LB:g=original	!	!LO:LB:g=original	!	!	!
=72-	=72-	=72-	=72-	=72-	=72-	=72-	=72-	=72-	=72-	=72-	=72-	=72-	=72-	=72-	=72-
2B-/	-te	2f\	su-	2b-\	su-	2dd\	.	2B-/	-te	2f\	-te	2b-y\	-te	4dd\	.
.	.	.	.	.	.	.	.	.	.	.	.	.	.	4ee\	-te
*	*	*custos:g	*	*	*	*	*	*	*	*	*	*	*	*	*
2f\	su-	2a\	.	2a\	.	2cc\	su-	2F/	su-	2f\	su-	2cc\	su-	2.ff\	su-
!	!	!LO:LB:g=original	!	!	!	!	!	!	!	!	!	!	!	!	!
=73-	=73-	=73-	=73-	=73-	=73-	=73-	=73-	=73-	=73-	=73-	=73-	=73-	=73-	=73-	=73-
1c	-per-	1g	-per-	1cc	-per-	1cc	-per-	1c	-per-	1g	-per-	1cc	-per-	.	.
.	.	.	.	.	.	.	.	.	.	.	.	.	.	8ee\L	.
.	.	.	.	.	.	.	.	.	.	.	.	.	.	8dd\J	.
.	.	.	.	.	.	.	.	.	.	.	.	.	.	2ee\	-per-
=74-	=74-	=74-	=74-	=74-	=74-	=74-	=74-	=74-	=74-	=74-	=74-	=74-	=74-	=74-	=74-
*	*	*	*	*	*	*	*	*	*	*	*	*	*	*custos:cc	*
1f	-na.	1f	-na	1a	-na.	1cc	-na	1F	-na	1a	-na	1cc	-na	1ff	-na
!	!	!	!	!	!	!	!	!	!	!	!	!	!	!LO:LB:g=original	!
!	!	!	!	!LO:LB:g=original	!	!	!	!	!	!	!	!	!	!	!
=75-	=75-	=75-	=75-	=75-	=75-	=75-	=75-	=75-	=75-	=75-	=75-	=75-	=75-	=75-	=75-
0r	.	0r	.	0r	.	0r	.	0r	.	0r	.	0r	.	2cc\	re-
.	.	.	.	.	.	.	.	.	.	.	.	.	.	2cc\	-ge
=76-	=76-	=76-	=76-	=76-	=76-	=76-	=76-	=76-	=76-	=76-	=76-	=76-	=76-	=76-	=76-
.	.	.	.	.	.	.	.	.	.	.	.	.	.	1dd	fo-
=77-	=77-	=77-	=77-	=77-	=77-	=77-	=77-	=77-	=77-	=77-	=77-	=77-	=77-	=77-	=77-
2r	.	2r	.	2r	.	2r	.	2r	.	2r	.	2r	.	2cc\	-ue
2c/	et	2g\	et	2cc\	et	2ee\	et	2c/	et	2g\	et	2cc\	et	2r	.
=78-	=78-	=78-	=78-	=78-	=78-	=78-	=78-	=78-	=78-	=78-	=78-	=78-	=78-	=78-	=78-
2g\	gu-	2g\	gu-	2b-\	gu-	2dd\	gu-	2G/	gu-	2g\	gu-	2dd\	gu-	0r	.
2g\	-ber-	2g\	-ber-	2b-\	-ber-	2dd\	-ber-	2G/	-ber-	2g\	-ber-	2dd\	-ber-	.	.
=79-	=79-	=79-	=79-	=79-	=79-	=79-	=79-	=79-	=79-	=79-	=79-	=79-	=79-	=79-	=79-
1c	-na	1e	-na	1cc	-na	1ee	-na.	1c	-na	1g	-na	1cc	-na	.	.
=80-	=80-	=80-	=80-	=80-	=80-	=80-	=80-	=80-	=80-	=80-	=80-	=80-	=80-	=80-	=80-
*	*	*	*	*	*	*custos:ff	*	*	*	*	*	*	*	*	*
0r	.	0r	.	0r	.	0r	.	0r	.	0r	.	0r	.	2ee\	re-
.	.	.	.	.	.	.	.	.	.	.	.	.	.	2ee\	-ge
=81-	=81-	=81-	=81-	=81-	=81-	=81-	=81-	=81-	=81-	=81-	=81-	=81-	=81-	=81-	=81-
.	.	.	.	.	.	.	.	.	.	.	.	.	.	1ff	fo-
!	!	!	!	!	!	!LO:LB:g=original	!	!	!	!	!	!	!	!	!
=82-	=82-	=82-	=82-	=82-	=82-	=82-	=82-	=82-	=82-	=82-	=82-	=82-	=82-	=82-	=82-
2r	.	2r	.	2r	.	2r	.	2r	.	2r	.	2r	.	2ee\	-ue
2f\	et	2c/	et	2b-\	et	2ff\	et	2F/	et	2f\	et	2cc\	et	2r	.
=83-	=83-	=83-	=83-	=83-	=83-	=83-	=83-	=83-	=83-	=83-	=83-	=83-	=83-	=83-	=83-
2c/	gu-	2c/	gu-	2b-\	gu-	2ee\	gu-	2c/	gu-	2g\	gu-	2cc\	gu-	0r	.
*custos:f	*	*	*	*	*	*	*	*	*	*	*	*	*	*	*
2c/	-ber-	2c/	-ber-	2g/	-ber-	2ee\	-ber-	2c/	-ber-	2g\	-ber-	2cc\	-ber-	.	.
!LO:LB:g=original	!	!	!	!	!	!	!	!	!	!	!	!	!	!	!
=84-	=84-	=84-	=84-	=84-	=84-	=84-	=84-	=84-	=84-	=84-	=84-	=84-	=84-	=84-	=84-
1f	-na	1c	-na	1a	-na	1ff	-na	1F	-na	1f	-na	1cc	-na	.	.
=85-	=85-	=85-	=85-	=85-	=85-	=85-	=85-	=85-	=85-	=85-	=85-	=85-	=85-	=85-	=85-
!LO:N:vis=0	!	!LO:N:vis=0	!	!LO:N:vis=0	!	!LO:N:vis=0	!	!LO:N:vis=0	!	!LO:N:vis=0	!	!LO:N:vis=0	!	!	!
0r	.	0r	.	0r	.	0r	.	0r	.	0r	.	0r	.	2ff\	re-
.	.	.	.	.	.	.	.	.	.	.	.	.	.	2ff\	-ge
=86-	=86-	=86-	=86-	=86-	=86-	=86-	=86-	=86-	=86-	=86-	=86-	=86-	=86-	=86-	=86-
.	.	.	.	.	.	.	.	.	.	.	.	.	.	2.dd\	fo-
.	.	.	.	.	.	.	.	.	.	.	.	.	.	4ee\	.
=87-	=87-	=87-	=87-	=87-	=87-	=87-	=87-	=87-	=87-	=87-	=87-	=87-	=87-	=87-	=87-
2r	.	2r	.	2r	.	2r	.	2r	.	2r	.	2r	.	2ff\	-ue
*	*	*	*	*	*	*	*	*custos:F	*	*	*	*	*	*	*
2B-/	et	2f\	et	2b-\	et	2ff\	et	2B-/	et.	2f\	et	2dd\	et	2r	.
!	!	!	!	!	!	!	!	!LO:LB:g=original	!	!	!	!	!	!	!
=88-	=88-	=88-	=88-	=88-	=88-	=88-	=88-	=88-	=88-	=88-	=88-	=88-	=88-	=88-	=88-
2f\	gu-	2f\	gu-	2a\	gu-	2ff\	gu-	2F/	gu-	2f\	gu-	2cc\	gu-	1r	.
2f\	-ber-	2c/	-ber-	2a\	-ber-	2cc\	-ber-	2F/	-ber-	2f\	-ber-	2cc\	-ber-	.	.
=89-	=89-	=89-	=89-	=89-	=89-	=89-	=89-	=89-	=89-	=89-	=89-	=89-	=89-	=89-	=89-
2B-/	-na	2f\	-na	2b-\	-na	2dd\	-na	2B-/	-na	2f\	-na	2b-\	-na	2r	.
*	*	*	*	*	*	*	*	*	*	*	*	*custos:g	*	*	*
2r	.	2r	.	2r	.	2r	.	2B-/	et	2b-\	et	2b-\	et.	2ff\	et
!	!	!	!	!	!	!	!	!	!	!	!	!LO:LB:g=original	!	!	!
=90-	=90-	=90-	=90-	=90-	=90-	=90-	=90-	=90-	=90-	=90-	=90-	=90-	=90-	=90-	=90-
1r	.	1r	.	1r	.	1r	.	2e-X\	gu-	2g\	gu-	2g/	gu-	2ee-X\	gu-
*	*	*	*	*	*	*	*	*	*	*custos:b-	*	*	*	*	*
.	.	.	.	.	.	.	.	2f\	-ber-	2a\	-ber-	2cc\	-ber-	2cc\	-ber-
!	!	!	!	!	!	!	!	!	!	!LO:LB:g=original	!	!	!	!	!
=91-	=91-	=91-	=91-	=91-	=91-	=91-	=91-	=91-	=91-	=91-	=91-	=91-	=91-	=91-	=91-
2r	.	2r	.	2r	.	2r	.	2B-/	-na	2b-\	-na.	2b-\	-na.	2dd\	-na
*	*	*	*	*	*	*	*	*	*	*	*	*	*	*custos:dd	*
2B-/	et	2b-\	et	2cc\	et	2dd\	et	2r	.	2r	.	2r	.	2r	.
!	!	!	!	!	!	!	!	!	!	!	!	!	!	!LO:LB:g=original	!
=92-	=92-	=92-	=92-	=92-	=92-	=92-	=92-	=92-	=92-	=92-	=92-	=92-	=92-	=92-	=92-
2e-X\	gu-	2g\	gu-	2cc\	gu-	2ee-X\	gu-	1r	.	1r	.	1r	.	1r	.
2f\	-ber-	2a\	-ber-	2cc\	-ber-	2cc\	-ber-	.	.	.	.	.	.	.	.
=93-	=93-	=93-	=93-	=93-	=93-	=93-	=93-	=93-	=93-	=93-	=93-	=93-	=93-	=93-	=93-
2B-/	-na	2b-\	-na	2b-\	-na	2dd\	-na	2r	.	2r	.	2r	.	2r	.
2r	.	2r	.	2r	.	2r	.	2G/	gu-	2g\	gu-	2b-\	gu-	2dd\	gu-
=94-	=94-	=94-	=94-	=94-	=94-	=94-	=94-	=94-	=94-	=94-	=94-	=94-	=94-	=94-	=94-
1r	.	1r	.	1r	.	1r	.	1c	-ber-	1g	-ber-	1cc	-ber-	1ee-X	-ber-
=95-	=95-	=95-	=95-	=95-	=95-	=95-	=95-	=95-	=95-	=95-	=95-	=95-	=95-	=95-	=95-
2r	.	2r	.	2r	.	2r	.	2G/	-na	2g\	-na	2b-\	-na	2dd\	-na
*	*	*custos:g	*	*	*	*	*	*	*	*	*	*	*	*	*
2G/	gu-	2g\	gu-	2bny\	gu-	2dd\	gu-	2r	.	2r	.	2r	.	2r	.
!	!	!LO:LB:g=original	!	!	!	!	!	!	!	!	!	!	!	!	!
=96-	=96-	=96-	=96-	=96-	=96-	=96-	=96-	=96-	=96-	=96-	=96-	=96-	=96-	=96-	=96-
1c	-ber-	1g	-ber-	1cc	-ber-	1ee-X	-ber-	1r	.	1r	.	1r	.	1r	.
=97-	=97-	=97-	=97-	=97-	=97-	=97-	=97-	=97-	=97-	=97-	=97-	=97-	=97-	=97-	=97-
2G/	-na	2g\	-na	2bny\	-na.	2dd\	-na	2r	.	2r	.	2r	.	2r	.
*	*	*	*	*custos:a	*	*	*	*	*	*	*	*	*	*	*
2r	.	2r	.	2r	.	2r	.	2d\	gu-	2a\	gu-	2dd\	gu-	2ff\	gu-
!	!	!	!	!LO:LB:g=original	!	!	!	!	!	!	!	!	!	!	!
=98-	=98-	=98-	=98-	=98-	=98-	=98-	=98-	=98-	=98-	=98-	=98-	=98-	=98-	=98-	=98-
1r	.	1r	.	1r	.	1r	.	1e-X	-ber-	1g	-ber-	2.b-\	-ber-	1gg	-ber-
.	.	.	.	.	.	.	.	.	.	.	.	4cc\	-na	.	.
=99-	=99-	=99-	=99-	=99-	=99-	=99-	=99-	=99-	=99-	=99-	=99-	=99-	=99-	=99-	=99-
2r	.	2r	.	2r	.	2r	.	2d\	-na	2a\	-na	2dd\	gu-	2ff\	-na
2F/	gu-	2f\	gu-	2a\	gu-	2cc\	gu-	2f\	gu-	2a\	gu-	2cc\	-ber-	2ff\	gu-
=100-	=100-	=100-	=100-	=100-	=100-	=100-	=100-	=100-	=100-	=100-	=100-	=100-	=100-	=100-	=100-
*	*	*	*	*	*	*custos:cc	*	*	*	*	*	*	*	*	*
1B-	-ber-	1f	-ber-	1b-y	-ber-	1dd	-ber-	4B-/	-ber-	2.f\	-ber-	1b-	-na	2.dd\	-ber-
.	.	.	.	.	.	.	.	4c/	.	.	.	.	.	.	.
.	.	.	.	.	.	.	.	4d\	.	.	.	.	.	.	.
.	.	.	.	.	.	.	.	4eny\	.	4g\	.	.	.	4eeny\	-na
!	!	!	!	!	!	!LO:LB:g=original	!	!	!	!	!	!	!	!	!
=101-	=101-	=101-	=101-	=101-	=101-	=101-	=101-	=101-	=101-	=101-	=101-	=101-	=101-	=101-	=101-
1F	-na	1f	-na	1a	-na	1cc	-na.	1f	-na	1a	-na	1cc	.	1ff	.
=102-	=102-	=102-	=102-	=102-	=102-	=102-	=102-	=102-	=102-	=102-	=102-	=102-	=102-	=102-	=102-
*M3/2	*	*M3/2	*	*M3/2	*	*M3/2	*	*M3/2	*	*M3/2	*	*M3/2	*	*M3/2	*
0.r	.	0.r	.	0.r	.	0.r	.	0f	re-	0a	re-	0cc	re-	0ff	re-
=103-	=103-	=103-	=103-	=103-	=103-	=103-	=103-	=103-	=103-	=103-	=103-	=103-	=103-	=103-	=103-
.	.	.	.	.	.	.	.	.	.	.	.	.	.	.	.
*	*	*	*	*	*	*	*	*custos:F	*	*	*	*	*	*	*
.	.	.	.	.	.	.	.	1c	-ge.	1g	-ge	1cc	-ge	1ee	-ge
!	!	!	!	!	!	!	!	!LO:LB:g=original	!	!	!	!	!	!	!
=104-	=104-	=104-	=104-	=104-	=104-	=104-	=104-	=104-	=104-	=104-	=104-	=104-	=104-	=104-	=104-
0f	re-	0c	re-	0cc	re-	0ff	re-	2F/	fo-	0f	fo-	1.a	fo-	0aa	fo-
.	.	.	.	.	.	.	.	2G/	.	.	.	.	.	.	.
.	.	.	.	.	.	.	.	2A/	.	.	.	.	.	.	.
=105-	=105-	=105-	=105-	=105-	=105-	=105-	=105-	=105-	=105-	=105-	=105-	=105-	=105-	=105-	=105-
.	.	.	.	.	.	.	.	2B-/	.	.	.	2b-\	-ue.	.	.
*	*	*	*	*	*	*	*	*	*	*	*	*custos:cc	*	*	*
1c	-ge	1c	-ge	1cc	-ge	1eeny	-ge	1c	-ue	1g	-ue	1cc	.	1gg	-ue
!	!	!	!	!	!	!	!	!	!	!	!	!LO:LB:g=original	!	!	!
=106-	=106-	=106-	=106-	=106-	=106-	=106-	=106-	=106-	=106-	=106-	=106-	=106-	=106-	=106-	=106-
2F/	fo-	0c	fo-	0a	fo-	0ff	fo-	0f	re-	0f	re-	0cc	re-	0aa	re-
2G/	.	.	.	.	.	.	.	.	.	.	.	.	.	.	.
2A/	.	.	.	.	.	.	.	.	.	.	.	.	.	.	.
=107-	=107-	=107-	=107-	=107-	=107-	=107-	=107-	=107-	=107-	=107-	=107-	=107-	=107-	=107-	=107-
*custos:c	*	*	*	*	*	*	*	*	*	*	*	*	*	*	*
2B-/	.	.	.	.	.	.	.	.	.	.	.	.	.	.	.
*	*	*	*	*	*	*	*	*	*	*custos:a	*	*	*	*	*
!LO:LB:g=original	!	!	!	!	!	!	!	!	!	!	!	!	!	!	!
1c	-ue	1g	-ue	1cc	-ue	1ee	-ue.	1c	-ge	1g	-ge.	1cc	-ge	1gg	-ge
!	!	!	!	!	!	!	!	!	!	!LO:LB:g=original	!	!	!	!	!
=108-	=108-	=108-	=108-	=108-	=108-	=108-	=108-	=108-	=108-	=108-	=108-	=108-	=108-	=108-	=108-
0f	re-	0c	re-	0cc	re-	0ff	re-	2F/	fo-	0a	fo-	1.a	fo-	0ff	fo-
.	.	.	.	.	.	.	.	2G/	.	.	.	.	.	.	.
.	.	.	.	.	.	.	.	2A/	.	.	.	.	.	.	.
=109-	=109-	=109-	=109-	=109-	=109-	=109-	=109-	=109-	=109-	=109-	=109-	=109-	=109-	=109-	=109-
.	.	.	.	.	.	.	.	2B-/	.	.	.	2b-\	.	.	.
*	*	*	*	*	*	*	*	*	*	*	*	*	*	*custos:ff	*
1c	-ge	1c	-ge	1cc	-ge	1ee	-ge	1c	-ue	1g	-ue	1cc	-ue	1gg	-ue.
!	!	!	!	!	!	!	!	!	!	!	!	!	!	!LO:LB:g=original	!
=110-	=110-	=110-	=110-	=110-	=110-	=110-	=110-	=110-	=110-	=110-	=110-	=110-	=110-	=110-	=110-
2F/	fo-	0c	fo-	0a	fo-	1.cc	fo-	1f	et	1a	et	1cc	et	1ff	et
2G/	.	.	.	.	.	.	.	.	.	.	.	.	.	.	.
2A/	.	.	.	.	.	.	.	1f\	gu-	1f\	gu-	1a\	gu-	1ff\	gu-
=111-	=111-	=111-	=111-	=111-	=111-	=111-	=111-	=111-	=111-	=111-	=111-	=111-	=111-	=111-	=111-
2B-/	.	.	.	.	.	2dd\	-ue	.	.	.	.	.	.	.	.
1c	-ue	1g	-ue	1cc	-ue	1ee	.	1c	-ber-	1g	-ber-	1g	-ber-	1ee	-ber-
=112-	=112-	=112-	=112-	=112-	=112-	=112-	=112-	=112-	=112-	=112-	=112-	=112-	=112-	=112-	=112-
1f	et	1f	et	1cc	et	1cc	et	1F	-na	1a	-na	1cc	-na	1ff	-na
1B-/	gu-	1d/	gu-	1b-\	gu-	1dd\	gu-	1r	.	1r	.	1r	.	1r	.
=113-	=113-	=113-	=113-	=113-	=113-	=113-	=113-	=113-	=113-	=113-	=113-	=113-	=113-	=113-	=113-
.	.	.	.	.	.	.	.	.	.	.	.	.	.	.	.
1c	-ber-	1g	-ber-	1g	-ber-	1ee	-ber-	1r	.	1r	.	1r	.	1r	.
=114-	=114-	=114-	=114-	=114-	=114-	=114-	=114-	=114-	=114-	=114-	=114-	=114-	=114-	=114-	=114-
1F	-na	1f	-na.	1a	-na	1ff	-na	1f	et	1a	et	1cc	et	1cc	et
1r	.	1r	.	1r	.	1r	.	1B-/	gu-	1d/	gu-	1b-\	gu-	1dd\	gu-
=115-	=115-	=115-	=115-	=115-	=115-	=115-	=115-	=115-	=115-	=115-	=115-	=115-	=115-	=115-	=115-
.	.	.	.	.	.	.	.	.	.	.	.	.	.	.	.
*	*	*custos:a	*	*	*	*	*	*	*	*	*	*	*	*	*
1r	.	1r	.	1r	.	1r	.	1c	-ber-	1g	-ber-	1g	-ber-	1ee	-ber-
!	!	!LO:LB:g=original	!	!	!	!	!	!	!	!	!	!	!	!	!
=116-	=116-	=116-	=116-	=116-	=116-	=116-	=116-	=116-	=116-	=116-	=116-	=116-	=116-	=116-	=116-
0f	re-	0a	re-	0cc	re-	0ff	re-	0F	-na	0f	-na	0a	-na	0ff	-na
=117-	=117-	=117-	=117-	=117-	=117-	=117-	=117-	=117-	=117-	=117-	=117-	=117-	=117-	=117-	=117-
.	.	.	.	.	.	.	.	.	.	.	.	.	.	.	.
1c	-ge	1g	-ge	1cc	-ge	1ee	-ge	1r	.	1r	.	1r	.	1r	.
=118-	=118-	=118-	=118-	=118-	=118-	=118-	=118-	=118-	=118-	=118-	=118-	=118-	=118-	=118-	=118-
0d	fo-	0f	fo-	1.a	fo-	0dd	fo-	00.r	.	00.r	.	00.r	.	00.r	.
=119-	=119-	=119-	=119-	=119-	=119-	=119-	=119-	=119-	=119-	=119-	=119-	=119-	=119-	=119-	=119-
.	.	.	.	2b-\	.	.	.	.	.	.	.	.	.	.	.
1A	-ue	1e	-ue	1cc	-ue	1cc	-ue	.	.	.	.	.	.	.	.
=120-	=120-	=120-	=120-	=120-	=120-	=120-	=120-	=120-	=120-	=120-	=120-	=120-	=120-	=120-	=120-
*	*	*	*	*	*	*custos:dd	*	*	*	*	*	*	*	*	*
1d	et	1f	et	1a	et	1dd	et	.	.	.	.	.	.	.	.
!	!	!	!	!	!	!LO:LB:g=original	!	!	!	!	!	!	!	!	!
1B-/	gu-	1f\	gu-	1b-\	gu-	1dd\	gu-	.	.	.	.	.	.	.	.
=121-	=121-	=121-	=121-	=121-	=121-	=121-	=121-	=121-	=121-	=121-	=121-	=121-	=121-	=121-	=121-
.	.	.	.	.	.	.	.	.	.	.	.	.	.	.	.
1c	-ber-	1e	-ber-	1g	-ber-	1cc	-ber-	.	.	.	.	.	.	.	.
=122-	=122-	=122-	=122-	=122-	=122-	=122-	=122-	=122-	=122-	=122-	=122-	=122-	=122-	=122-	=122-
0.F	-na	0f	-na	0a	-na	0.cc	-na	0f	re-	0a	re-	0cc	re-	0ff	re-
=123-	=123-	=123-	=123-	=123-	=123-	=123-	=123-	=123-	=123-	=123-	=123-	=123-	=123-	=123-	=123-
.	.	.	.	.	.	.	.	.	.	.	.	.	.	.	.
.	.	1r	.	1r	.	.	.	1c	-ge	1g	-ge	1cc	-ge	1ee	-ge
=124-	=124-	=124-	=124-	=124-	=124-	=124-	=124-	=124-	=124-	=124-	=124-	=124-	=124-	=124-	=124-
00.r	.	00.r	.	00.r	.	00.r	.	0d	fo-	0f	fo-	1.a	fo-	0dd	fo-
=125-	=125-	=125-	=125-	=125-	=125-	=125-	=125-	=125-	=125-	=125-	=125-	=125-	=125-	=125-	=125-
.	.	.	.	.	.	.	.	.	.	.	.	2b-\	-ue	.	.
*	*	*	*	*	*	*	*	*custos:F	*	*	*	*	*	*	*
.	.	.	.	.	.	.	.	1A	-ue	1e	-ue	1cc	et	1ee	-ue
!	!	!	!	!	!	!	!	!LO:LB:g=original	!	!	!	!	!	!	!
=126-	=126-	=126-	=126-	=126-	=126-	=126-	=126-	=126-	=126-	=126-	=126-	=126-	=126-	=126-	=126-
*	*	*	*	*	*	*	*	*	*	*	*	*custos:dd	*	*	*
.	.	.	.	.	.	.	.	1F	et	1a	et	1cc	.	1ff	et
!	!	!	!	!	!	!	!	!	!	!	!	!LO:LB:g=original	!	!	!
.	.	.	.	.	.	.	.	1B-/	gu-	1b-\	gu-	1dd\	gu-	2dd\	gu-
=127-	=127-	=127-	=127-	=127-	=127-	=127-	=127-	=127-	=127-	=127-	=127-	=127-	=127-	=127-	=127-
.	.	.	.	.	.	.	.	.	.	.	.	.	.	2dd\	.
*	*	*	*	*	*	*	*	*	*	*custos:a	*	*	*	*	*
.	.	.	.	.	.	.	.	1c	-ber-	1g	-ber-	1cc	-ber-	1ee	-ber-
!	!	!	!	!	!	!	!	!	!	!LO:LB:g=original	!	!	!	!	!
=128-	=128-	=128-	=128-	=128-	=128-	=128-	=128-	=128-	=128-	=128-	=128-	=128-	=128-	=128-	=128-
*M2/2	*	*M2/2	*	*M2/2	*	*M2/2	*	*M2/2	*	*M2/2	*	*M2/2	*	*M2/2	*
*met(c|)	*	*met(c|)	*	*met(c|)	*	*met(c|)	*	*met(c|)	*	*met(c|)	*	*met(c|)	*	*met(c|)	*
1f	fo-	1c	et	4cc\	et	2ff\	et	2F/	-na	2a\	-na	2cc\	-na	2ff\	-na
.	.	.	.	4b-\	.	.	.	.	.	.	.	.	.	.	.
*	*	*	*	*	*	*	*	*	*	*	*	*	*	*custos:ff	*
.	.	.	.	4a\	gu-	4ff\	gu-	2f\	et	4a\	gu-	4cc\	et	2ff\	et
.	.	.	.	4g\	.	4ee\	.	.	.	4g\	.	4b-\	.	.	.
!	!	!	!	!	!	!	!	!	!	!	!	!	!	!LO:LB:g=original	!
=129-	=129-	=129-	=129-	=129-	=129-	=129-	=129-	=129-	=129-	=129-	=129-	=129-	=129-	=129-	=129-
1F	-ue	2c/	gu-	4a\	-ber-	4dd\	-[[ber]]-	4f\	gu-	4f\	.	4a\	.	2.ff\	gu-
.	.	.	.	4b-\	.	4cc\	.	4e\	.	4g\	.	4g/	.	.	.
.	.	2f\	-ber-	4cc\	.	4b-/	.	4d\	.	2a\	.	4a\	.	.	.
.	.	.	.	4a\	.	4cc\	.	4c/	.	.	.	4cc\	.	4ee\	.
=130-	=130-	=130-	=130-	=130-	=130-	=130-	=130-	=130-	=130-	=130-	=130-	=130-	=130-	=130-	=130-
4B-/	et	1f	-na	1b-	-na	1dd	-ber-	2.B-/	.	1b-	-ber-	2f/	gu-	4dd\	.
4c\	.	.	.	.	.	.	.	.	.	.	.	.	.	4ee\	.
4d\	.	.	.	.	.	.	.	.	.	.	.	2b-\	-ber-	4ff\	.
4eny\	.	.	.	.	.	.	.	8A/L	.	.	.	.	.	4dd\	.
.	.	.	.	.	.	.	.	8G/J	.	.	.	.	.	.	.
=131-	=131-	=131-	=131-	=131-	=131-	=131-	=131-	=131-	=131-	=131-	=131-	=131-	=131-	=131-	=131-
2.f\	gu-	2f\	et	2a\	et	2cc\	-na	4F/	-ber-	2a\	-na	2cc\	-na	2.cc\	.
.	.	.	.	.	.	.	.	4G/	.	.	.	.	.	.	.
.	.	2c/	gu-	2cc\	gu-	2cc\	gu-	4A/	.	2f\	et	2cc\	et	.	.
8e\L	.	.	.	.	.	.	.	4B-/	.	.	.	.	.	4dd\	.
8d\J	.	.	.	.	.	.	.	.	.	.	.	.	.	.	.
=132-	=132-	=132-	=132-	=132-	=132-	=132-	=132-	=132-	=132-	=132-	=132-	=132-	=132-	=132-	=132-
!	!	!	!	!	!	!	!	!	!	!LO:TX:a:t=P:rytm:problem	!	!	!	!	!
!	!	!	!	!	!	!	!	!	!	!LO:N:vis=2	!	!	!	!	!
0c	-ber-	0c	-ber-	1.cc	-ber-	0cc	-ber-	0c	.	1.g	gu-	1.cc	gu-	4ee\	.
.	.	.	.	.	.	.	.	.	.	.	.	.	.	4cc\	.
.	.	.	.	.	.	.	.	.	.	.	.	.	.	2.ff\	-ber-
=133-	=133-	=133-	=133-	=133-	=133-	=133-	=133-	=133-	=133-	=133-	=133-	=133-	=133-	=133-	=133-
.	.	.	.	.	.	.	.	.	.	.	.	.	.	.	.
.	.	.	.	.	.	.	.	.	.	.	.	.	.	8ee\L	.
.	.	.	.	.	.	.	.	.	.	.	.	.	.	8dd\J	.
.	.	.	.	2g/	.	.	.	.	.	2g\	ber-	2cc\	-ber-	2ee\	.
=134-	=134-	=134-	=134-	=134-	=134-	=134-	=134-	=134-	=134-	=134-	=134-	=134-	=134-	=134-	=134-
!LO:TX:a:t=P:problem=znak fermaty nad i pod nutą	!	!	!	!LO:TX:a:t=P:problem=znak podobny do fermaty nad i pod nutą	!	!LO:TX:a:t=P:problem=znak fermaty nad i pod nutą	!	!	!	!LO:TX:a:t=P:problem=znak podobny do fermaty nad i pod nutą	!	!LO:TX:a:t=P:problem=znak podobny do fermaty nad i pod nutą	!	!LO:TX:a:t=P:problem=znak podobny do fermaty nad i pod nutą	!
0f;>;<	-na.	0c;>	-na	0a;>;<	-na.	0cc;>;<	-na.	0F;>	-na.	0f;>;<	-na.	0cc;>;<	-na	0ff;>;<	-na.
==	==	==	==	==	==	==	==	==	==	==	==	==	==	==	==
*-	*-	*-	*-	*-	*-	*-	*-	*-	*-	*-	*-	*-	*-	*-	*-
!!!system-decoration: [(s1,s2,s3,s4)][(s5,s6,s7,s8)]
!!!RDF**kern: > = above
!!!RDF**kern: < = below
!!!ENC: Andrzej Gręziak
!!!END: 2021-10-10
!!!ENC: Antoni Szymański
!!!END: 2021-10-20
!!!YEC: Copyright 2022 Narodowy Instytut Fryderyka Chopina (https://polishscores.org)
!!!YEM: License CC-BY-4.0 (https://creativecommons.org/licenses/by/4.0)
